X:3362
T:L'eau de Roche
O:england
C:Trad 1, 16
M:2/4
L:1/16
K:C
c2de f2d2|gfga gfed|c2de f2d2|gfga g4:|\
|:defd g2fe|dedc B2G2|defd g2fe|dedB c4:|


